X:1
T:Title
%%score { ( 1 3 ) | 2 }
L:1/8
Q:1/4=96
M:4/4
K:F
V:1 treble nm="Grand Piano"
V:3 treble 
V:2 bass 
V:1
 C2 F>G A3 A | [DG][DF] [DF]>[B,D] [DF]4 | C2 F>G A3 A | [FA][FG] [FG]>[FA] [EG]4 | %4
w: C.~S.~Nusbaum * * * *||||
 [Ec]2 [Fc]>[GB] [FA]3 [EG] | [DF][DF] [_EF]>[EF] [DB]4 | [CA]<[FA] F>[FG] [FA] [FA]2 G | F6 z2 | %8
w: ||||
 A<c c>c c d2 c | c6 z2 | A<A A>A c c2 A | G8 | A>A A>A A3 F | %13
w: |||||
[M:9/8] [DG]>[DF][DF]- [DF]/[DFG]/ [^CEA]2- [CEA] [=CEB]2 | %14
w: |
[M:4/4] [CFA]<[A,Fc] [CFA]>[=B,F] [CFA] [CFA]2 [_B,CG] | [A,CF]6 z2 |] %16
w: ||
V:2
 [F,A,]2 [F,A,C]>[F,B,C] [F,CF]3 [F,C_E] | [B,,B,][B,,B,] [B,,B,]>[B,,F,] [B,,B,]4 | %2
 [F,A,]2 [F,A,C]>[F,B,C] [F,CF]3 [F,CF] | [D,=B,][D,B,] [G,B,]>[G,B,] [C,C]4 | %4
 [C,G,]2 [D,G,]>[E,C] [F,C]3 [C,B,] | [D,A,][D,A,] [C,A,]>[C,A,] [B,,F,]4 | %6
 [C,F,]<[C,C] [D,=B,]>[D,B,] [C,C] [C,C]2 [C,_B,C] | [F,A,C]6 z2 | %8
 [F,CF]<[F,A,F] [F,A,F]>[F,A,F] [F,A,F] [F,B,F]2 [F,A,F] | [F,A,F]3 [C,B,] [F,A,]2 z2 | %10
 [F,CF]<[F,CF] [F,CF]>[F,CF] [F,A,F] [F,A,F]2 [F,CF] | [C,C]3 [D,=B,] [C,C]3 E, | %12
 [F,CF]>[F,CF] [F,CF]>[F,CF] [F,CF]3 [F,A,_E] | %13
[M:9/8] [B,,B,]>[B,,B,][B,,B,]- [B,,B,]/B,,/ A,,2- A,, G,,2 |[M:4/4] F,,<F,, F,>D, C, C,2 C, | %15
 F,6 z2 |] %16
V:3
 x8 | x8 | x8 | x8 | x8 | x8 | x8 | x8 | x8 | z2 z G F2 z2 | x8 | E3 F E3 C | x8 |[M:9/8] x9 | %14
[M:4/4] x8 | x8 |] %16

